X: 29737
T: Nyth Y Gog
R: hornpipe
M: 4/4
K: Amajor
|:(FG)|(AG)(AG) TF2 (af)|(ec)(BA) GBAG|(AG)(AB) (cB)(cd)|e2B2B2 (cB)|
(AG)(AG) TF2 (af)|(ec)(BA) (GB)(AG)|(AG)AB cdcB|A2F2F2:|
|:Tc2|f^efg fagf|e2 c2 Tc4|(Acec) (Acec)|d2B2TB4|
f^efg fagf|e2c2c2 (cB)|(AG)(AB) (cd)(cB)|A2F2F2:|
|:TA2|(cAFA) (cAFA)|(cA)(cA) TF2 (GA)|(BGEG) (BGEG)|(BGBG) TE2 (FG)|
(AG)(AG) E2 (af)|(ec)(BA) GBAG|(AG)(AB) (cd)(cB)|A2F2F2:|

